X:1
T:Crediton, CM
T:Crediton, CM
T:Thomas Clark, 1807
T:Public Domain Courtesy of the Cyber Hymnal™
C:Thomas Clark, 1807
Z:Public Domain
Z:Courtesy of the Cyber Hymnal™
%%score ( 1 2 ) ( 3 4 )
L:1/8
Q:1/4=108
M:none
K:C
V:1 treble 
V:2 treble 
V:3 bass 
V:4 bass 
V:1
 [EG]2 | [Ec]2 [FB]2 [Gc]2 [EG]2 | [FA]2 ([EG][DF]) [CE]2 [CG]2 | (AB) [Cc]2 [B,F]2 [CE]2 | %4
 [B,D]6 G2 | G2 (GA) [EB]2 [Ge]2 | [Fd]2 [Ec]2 [DB]2 G2 | (AB) [Gc]2 [Fd]2 ([Ec][DB]) | [Ec]6 |] %9
V:2
 x2 | x8 | x8 | C2 x6 | x6 G2 | G2 F2 x4 | x6 G2 | F2 x6 | x6 |] %9
V:3
 [C,G,]2 | [C,G,]2 [D,G,]2 [E,G,]2 [C,C]2 | [F,C]2 [G,B,]2 [C,C]2 (CB,) | %3
 [F,A,]2 [E,G,]2 [D,G,]2 [C,G,]2 | [G,,G,]6 B,2 | [E,C]2 [D,F,]2 [C,G,]2 [C,G,]2 | %6
 [B,,G,]2 [C,G,]2 [G,B,]2 [E,C]2 | (CD) [E,C]2 [F,A,]2 G,2 | [C,G,]6 |] %9
V:4
 x2 | x8 | x6 E,2 | x8 | x6 (G,F,) | x8 | x8 | F,2 x3 G,2 x | x6 |] %9

